X: 37715
T: Sólarlag
R: three-two
M: 3/2
K: Amajor
e3d cBAG ABcd|e2ee e2f2 d2cd|e3d cBAG ABcd|
e2ee e2f2 d4|a3a g2ab e2dc|defd B2A2 A4:|
|:e3e e2a2 g2b2|d3d d2a2 g2e2|c3c c2f2 e2c2|
B3B- BcBG E2FG|A3A A2a2 g2b2|d3d d2a2 g2e2|
c3c c2f2 e2c2|B3B- BcBG E2DC|[M:2/2]DEFG ABcd|[M:3/2]ecBA B2A2 A4:|

